src/sym-aep.svg

<svg width="33" height="32" viewBox="0 0 33 32" fill="none" xmlns="http://www.w3.org/2000/svg">
<g clip-path="url(#clip0_3393:12160)">
<path fill-rule="evenodd" clip-rule="evenodd" d="M16.4338 31.84C25.1819 31.84 32.2738 24.7482 32.2738 16C32.2738 7.25178 25.1819 0.159973 16.4338 0.159973C7.68556 0.159973 0.59375 7.25178 0.59375 16C0.59375 24.7482 7.68556 31.84 16.4338 31.84ZM6.86471 9.14333L11.5281 4.47992H13.7444C13.1441 4.82622 11.1587 7.29644 10.6508 9.14333H6.86471ZM16.0068 4.47992V9.14333H11.5281C11.8436 8.18141 12.9687 5.90203 14.9449 4.47992H16.0068ZM16.9072 9.14333H21.4321C20.3794 6.63155 18.6694 4.98782 17.9461 4.47992H16.9072V9.14333ZM25.9801 9.14333H22.3094C21.7322 7.75816 20.6887 5.84662 19.1927 4.47992H21.2705L25.9801 9.14333ZM10.5355 22.8565H6.8648L11.5744 27.5199H13.6521C12.1561 26.1532 11.1127 24.2417 10.5355 22.8565ZM11.4128 22.8565H15.9377L15.9377 27.5199L14.8988 27.5199C14.1754 27.012 12.4655 25.3683 11.4128 22.8565ZM16.838 22.8565V27.5199H17.9C19.8762 26.0978 21.0012 23.8184 21.3167 22.8565L16.838 22.8565ZM21.3167 27.5199L25.9801 22.8565H22.194C21.6861 24.7034 19.7007 27.1736 19.1005 27.5199H21.3167ZM6.35547 20H7.87947L8.37147 18.152H10.7955L11.2875 20H12.8115L10.4355 11.18H8.73147L6.35547 20ZM8.73147 16.82L8.97147 15.932C9.29147 14.756 9.49547 13.804 9.58347 13.076C9.67147 13.804 9.87547 14.756 10.1955 15.932L10.4355 16.82H8.73147ZM14.2415 20H19.1495V18.668H15.7295V15.992H18.3575V14.66H15.7295V12.512H19.1495V11.18H14.2415V20ZM22.4396 20H20.9516V11.18H23.5916C23.8556 11.18 24.1156 11.204 24.3716 11.252C24.6356 11.292 24.8876 11.372 25.1276 11.492C25.3676 11.604 25.5756 11.76 25.7516 11.96C25.9356 12.152 26.0636 12.376 26.1356 12.632C26.2156 12.888 26.2556 13.144 26.2556 13.4V14.456C26.2556 14.712 26.2156 14.968 26.1356 15.224C26.0636 15.48 25.9356 15.708 25.7516 15.908C25.5756 16.1 25.3676 16.256 25.1276 16.376C24.8876 16.488 24.6356 16.568 24.3716 16.616C24.1156 16.656 23.8556 16.676 23.5916 16.676H22.4396V20ZM22.4396 12.512V15.344H23.5916C23.7356 15.344 23.8756 15.332 24.0116 15.308C24.1476 15.276 24.2756 15.224 24.3956 15.152C24.5236 15.08 24.6196 14.98 24.6836 14.852C24.7476 14.724 24.7796 14.592 24.7796 14.456V13.4C24.7796 13.264 24.7476 13.132 24.6836 13.004C24.6196 12.876 24.5236 12.776 24.3956 12.704C24.2756 12.632 24.1476 12.584 24.0116 12.56C23.8756 12.528 23.7356 12.512 23.5916 12.512H22.4396Z" fill="black"/>
</g>
<defs>
<clipPath id="clip0_3393:12160">
<rect width="32" height="32" fill="white" transform="translate(0.441406)"/>
</clipPath>
</defs>
</svg>

<svg xmlns="http://www.w3.org/2000/svg" viewBox="0 0 33 32">
	<path
		d="M16.4 31.8c8.7 0 15.8-7.1 15.8-15.8C32.2 7.3 25.1.2 16.4.2 7.7.2.6 7.3.6 16c0 8.7 7.1 15.8 15.8 15.8zM6.9 9.1l4.7-4.7h2.2c-.6.3-2.6 2.8-3.1 4.7H6.9zM16 4.5v4.7h-4.5c.3-1 1.4-3.2 3.4-4.7H16zm.9 4.6h4.5c-1.1-2.5-2.8-4.2-3.5-4.7h-1v4.7zm9.1 0h-3.7c-.6-1.4-1.6-3.3-3.1-4.7h2.1L26 9.1zM10.5 22.9H6.9l4.7 4.7h2.1c-1.5-1.4-2.6-3.4-3.2-4.7zm.9 0h4.5v4.7h-1c-.7-.6-2.4-2.2-3.5-4.7zm5.4 0v4.7h1.1c2-1.4 3.1-3.7 3.4-4.7h-4.5zm4.5 4.6l4.7-4.7h-3.8c-.5 1.8-2.5 4.3-3.1 4.7h2.2zM6.4 20h1.5l.5-1.8h2.4l.5 1.8h1.5l-2.4-8.8H8.7L6.4 20zm2.3-3.2l.3-.9c.3-1.2.5-2.1.6-2.9.1.7.3 1.7.6 2.9l.2.9H8.7zm5.5 3.2h4.9v-1.3h-3.4V16h2.6v-1.3h-2.6v-2.1h3.4v-1.3h-4.9V20zm8.2 0H21v-8.8h2.6c.3 0 .5 0 .8.1.3 0 .5.1.8.2.2.1.4.3.6.5.2.2.3.4.4.7.1.3.1.5.1.8v1.1c0 .3 0 .5-.1.8-.1.3-.2.5-.4.7-.2.2-.4.3-.6.5-.2.1-.5.2-.8.2-.3 0-.5.1-.8.1h-1.2V20zm0-7.5v2.8H24c.1 0 .3-.1.4-.2l.3-.3c.1-.1.1-.3.1-.4v-1.1c0-.1 0-.3-.1-.4l-.3-.3c-.1-.1-.2-.1-.4-.1h-1.6z"
		fill-rule="evenodd" clip-rule="evenodd" />
</svg>
